src/ios-pricetags-outline.svg

<?xml version="1.0" encoding="utf-8"?>
<!-- Generated by IcoMoon.io -->
<!DOCTYPE svg PUBLIC "-//W3C//DTD SVG 1.1//EN" "http://www.w3.org/Graphics/SVG/1.1/DTD/svg11.dtd">
<svg version="1.1" xmlns="http://www.w3.org/2000/svg" xmlns:xlink="http://www.w3.org/1999/xlink" width="512" height="512" viewBox="0 0 512 512">
<path fill="#000000" d="M448 64v-32h-160l-256 288 160 160 23.471-23.904 24.529 23.904 240-272v-144h-32zM192 457.371l-137.61-137.371 240.231-272h137.379v137.377l-216.555 247.99-11.34 11.363-12.105 12.641zM464 201.377l-224 255.994-13.182-12.65 221.182-252.721v-112h16v121.377z"></path>
<path fill="#000000" d="M352 160c17.645 0 32-14.355 32-32s-14.355-32-32-32-32 14.355-32 32 14.355 32 32 32zM352 112c8.836 0 16 7.163 16 16s-7.164 16-16 16-16-7.163-16-16 7.164-16 16-16z"></path>
</svg>

<?xml version="1.0" encoding="utf-8"?>
<!-- Generator: Adobe Illustrator 16.2.1, SVG Export Plug-In . SVG Version: 6.00 Build 0)  -->
<!DOCTYPE svg PUBLIC "-//W3C//DTD SVG 1.1//EN" "http://www.w3.org/Graphics/SVG/1.1/DTD/svg11.dtd">
<svg version="1.1" id="Layer_1" xmlns="http://www.w3.org/2000/svg" xmlns:xlink="http://www.w3.org/1999/xlink" x="0px" y="0px"
	 width="512px" height="512px" viewBox="0 0 512 512" enable-background="new 0 0 512 512" xml:space="preserve">
<g>
	<path d="M448,64V32H288L32,320l160,160l23.471-23.904L240,480l240-272V64H448z M192,457.371L54.39,320L294.621,48H432v16v16
		v105.377l-216.555,247.99l-11.34,11.363L192,457.371z M464,201.377L240,457.371l-13.182-12.65L448,192V80h16V201.377z"/>
	<path d="M352,160c17.645,0,32-14.355,32-32s-14.355-32-32-32s-32,14.355-32,32S334.355,160,352,160z M352,112
		c8.836,0,16,7.163,16,16s-7.164,16-16,16s-16-7.163-16-16S343.164,112,352,112z"/>
</g>
</svg>
